X: 122003
T: NEGRO BREAK DOWN
P: Same figure.
%R: reel
B: James Kerr "Merry Melodies" v.1 p.22 s.0 #3
Z: 2017 John Chambers <jc:trillian.mit.edu>
M: 2/4
L: 1/16
K: A
|:\
EFAB c2c2 | (de)cB cAF2 |\
EFAB c2c2 | (BA)Bc A4 :|\
vagfe fgaf | ecBd cAce |
agfe fgaf | (ec)Bc A4 ||\
vagfe fgaf | ecBd cBAF |\
EFAB c2c2 | (BA)Bc A4 |]

%%sep 1 1 500
%%sep 1 1 500

